X: 10541
P: Usually played as a dance.
M: 6/8
L: 1/8
K: F
c !segno! |\
|: f |\
cAA fAA | aAA cGG |
cAA fAA | ae^c d2f |\
[1 cAA fAA | aAA cGc |\
[2 c>de fga | gfe fed |\
{d}c>AF AfHa | gfe d2f !segno!|]


